X: 120754
T: Larry the Beerdrinker
M: 6/8
L: 1/8
S: B.Flaherty
Z: B.Black
R: jig
K: D
A | dAF FEF | AFE F2 A | dAF FEF | AFE E2 A |
dAF FEF | AFA d2 d | cBA BAF | AFE E2 :|
F | D2 F FEF | AFE F2 E | DFF FEF | AFE E2 F |
DFF FEF | AFA | d2 d | cBA BAF | AFE E2 :|
f | eAA BAf | eAA A2 f | eAABcd | fdB B2 f |
eAA BAB | afa f2 a | fed BdB | AFD E2 :|
